packages/ffe-icons/icons/filled/sm/display_external_input.svg

<svg xmlns="http://www.w3.org/2000/svg" height="20" viewBox="0 -960 960 960" width="20"><path d="M740.693-204h-139.44q-11.242 0-18.825-7.405-7.582-7.404-7.582-18.384 0-10.979 7.465-18.594 7.465-7.616 18.534-7.616h141.233l-49.861-51.392q-7.756-8.224-8.256-17.493-.5-9.269 6.808-17.192 8.307-8.307 17.884-8.307t18.269 8.692l90.384 90.384q10.231 10.231 10.231 22.808t-10.231 22.807l-87.384 87.385q-8.692 8.692-19.077 8.692-10.384 0-19.076-8.692-8.308-8.308-7.808-18.885.5-10.576 8.531-18.607L740.693-204Zm-512.384 39.999q-27.008 0-45.658-18.65-18.65-18.65-18.65-45.658v-129.692q0-11.069 7.405-18.534Q178.811-384 189.79-384q10.98 0 18.595 7.465Q216-369.07 216-358.001v129.692q0 4.616 3.846 8.463 3.847 3.846 8.463 3.846h129.692q11.069 0 18.534 7.405Q384-201.191 384-190.211q0 10.979-7.465 18.594-7.465 7.616-18.534 7.616H228.309Zm-64.308-437.998v-129.692q0-27.008 18.65-45.658 18.65-18.65 45.658-18.65h129.692q11.069 0 18.534 7.405Q384-781.189 384-770.21q0 10.98-7.465 18.595Q369.07-744 358.001-744H228.309q-4.616 0-8.463 3.846-3.846 3.847-3.846 8.463v129.692q0 11.069-7.405 18.534Q201.191-576 190.211-576q-10.979 0-18.594-7.465-7.616-7.465-7.616-18.534Zm579.999 0v-129.692q0-4.616-3.846-8.463-3.847-3.846-8.463-3.846H601.999q-11.069 0-18.534-7.405Q576-758.809 576-769.789q0-10.979 7.465-18.594 7.465-7.616 18.534-7.616h129.692q27.008 0 45.658 18.65 18.65 18.65 18.65 45.658v129.692q0 11.069-7.405 18.534Q781.189-576 770.21-576q-10.98 0-18.595-7.465Q744-590.93 744-601.999Z"/></svg>

<svg xmlns="http://www.w3.org/2000/svg" height="20" viewBox="0 -960 960 960" width="20"><path d="M740.69-204H601.25q-11.24 0-18.82-7.4-7.58-7.41-7.58-18.39t7.46-18.59q7.47-7.62 18.54-7.62h141.23l-49.86-51.39q-7.76-8.22-8.26-17.49-.5-9.27 6.81-17.2 8.31-8.3 17.88-8.3 9.58 0 18.27 8.69l90.39 90.38q10.23 10.23 10.23 22.81 0 12.58-10.23 22.81l-87.39 87.38q-8.69 8.69-19.07 8.69-10.39 0-19.08-8.69-8.31-8.3-7.81-18.88.5-10.58 8.53-18.61l48.2-48.2Zm-512.38 40q-27.01 0-45.66-18.65Q164-201.3 164-228.31V-358q0-11.07 7.41-18.53 7.4-7.47 18.38-7.47 10.98 0 18.59 7.47Q216-369.07 216-358v129.69q0 4.62 3.85 8.46 3.84 3.85 8.46 3.85H358q11.07 0 18.53 7.4 7.47 7.41 7.47 18.39t-7.47 18.59Q369.07-164 358-164H228.31ZM164-602v-129.69q0-27.01 18.65-45.66Q201.3-796 228.31-796H358q11.07 0 18.53 7.41 7.47 7.4 7.47 18.38 0 10.98-7.47 18.59Q369.07-744 358-744H228.31q-4.62 0-8.46 3.85-3.85 3.84-3.85 8.46V-602q0 11.07-7.4 18.53-7.41 7.47-18.39 7.47t-18.59-7.47Q164-590.93 164-602Zm580 0v-129.69q0-4.62-3.85-8.46-3.84-3.85-8.46-3.85H602q-11.07 0-18.53-7.4-7.47-7.41-7.47-18.39t7.47-18.59Q590.93-796 602-796h129.69q27.01 0 45.66 18.65Q796-758.7 796-731.69V-602q0 11.07-7.41 18.53-7.4 7.47-18.38 7.47-10.98 0-18.59-7.47Q744-590.93 744-602Z"/></svg>
